X:1
T:Daystar
T:Daystar
T:Steve Richardson, 1988
T:Shine Down On Me
T:Larry Johnson, 2011
C:Steve Richardson 1988
Z:All Rights Reserved
L:1/8
Q:1/4=60
M:4/4
K:F
V:1 treble nm="Voice"
%%MIDI program 54
V:1
"^In Tempo" z8 |"Dbmaj7" z8 |"Cm7" z8 |"F2" z8 | z8 ||"F2" z2 A/c/c/A/ c2 A2 |"F9" cc cc<cB AG | %7
w: |||||Li lly of the Val ley|let your sweet a rom a fill my|
"Bb" F4-"Bbmaj9" F4- | F4 z4 |"Gm7" z2 BB<BB BA/-G/ |"Gmaj" z B/B/ BB"Gm7" BAGB |"C7" E8 | %12
w: life _|_|Rose of Sha ron show me _|how to grow in beau ty in God's|sight|
"Gm7" z4"C9" z4 |"F2" z2 A/c/c/c/ c2 A2 |"F9" A c2 c/c/ cBAc |"Bb2" F8- |"Bbm/Db" B4 z4 | %17
w: |Cher sihed of ten thou sand|make me a re flec tion of your|Light|_|
"F/C" AA AF/FC3/2 z2 |"Gm7" GG GG/"C7"AG3/2 F>E |"F" F8 |"F13" z2"F7" z2"F7sus4" z2"F13" z2 || %21
w: Day star shine down on me|let your love shine through me in the|night||
"Bb" dd<dd BB"Eb" z2 |"Bb" dd<dd"C7" BB/c/"C9" z d |"F" c6- c>B- | A4"F9" z2"F#9" z2 | %25
w: lead me Lord I'll fol low|an y where you o pen up the|door _ _|_|
"G9" dd<dd =BB z2 |"G7" dd<dd"G13" d/d/ z"G9" e>d |"C" c8- |"Gm7" B2-"Gm9" B2"C" z2"C9" z A/B/ | %29
w: let me know your wis dom|show me things I've nev er seen be|fore|_ _ Lord I|
"F" cc<cA c/A/-G/-F/ z2 |"F9" z2 A/c/c/A/ d2 z/ c/A/G/ |"Bb" F4-"Bb6" F4- |"Bbm/Db" F4 z4 | %33
w: want to be Your wit ness _ _|You can take what's wrong and make it|right _|_|
"F/C" AA AF/FC3/2 z2 |"Gm7" GG<GG"C7" G/F/ z A>G |"F" F8 |"Bbm/Db" z6"Eb" z A/B/ | %37
w: Day Star shine down on me|let your love shine through me in the|night|Lord I|
"F2" c/c/ c2 A/cA/G/F/ z2 | z A/c/ cc<cB AG |"Bb" F4-"Bbmaj9" F4- | F4 z4 |"Gm7" z2 BB<BB BA/-G/ | %42
w: see a world that's dy ing _ _|wound ed by the mas ter of de|ceit _|_|grop ing in the dark ness _|
"Gmaj" z B/B/ BB"Gm7" BAGB |"C7" E8 |"Gm7" z4"C9" z2 z/ A/A/B/ | c/c/ c2 A<cA/G/ F2 | %46
w: haunt ed by the years of past de|feat|but then I|see you stand ing ne ar _ me|
"F9" A c2 c/c/ cBAc |"Bb2" F8- |"Bbm/Db" B4 z4 |"F/C" AA AF/FC3/2 z2 |"Gm7" GG GG/"C7"AG3/2 F>E | %51
w: shin ing with com pas sion in your|eyes|_|Je sus shine down on me|let your love shine through me in the|
"F" F8 |"F13" z2"F7" z2"F7sus4" z2"F13" z2 ||"Bb" dd<dd BB"Eb" z2 |"Bb" dd<dd"C7" BB/c/"C9" z d | %55
w: night||lead me Lord I'll fol low|an y where you o pen up the|
"F" c6- c>B- | A4"F9" z2"F#9" z2 |"G9" dd<dd =BB z2 |"G7" dd<dd"G13" d/d/ z"G9" e>d |"C" c8- | %60
w: door _ _|_|let me know your wis dom|show me things I've nev er seen be|fore|
"Gm7" B2-"Gm9" B2"C" z2"C9" z A/B/ |"F" cc<cA c/A/-G/-F/ z2 |"F9" z2 A/c/c/A/ d2 z/ c/A/G/ | %63
w: _ _ Lord I|want to be Your wit ness _ _|You can take what's wrong and make it|
"Bb" F4-"Bb6" F4- |"Bbm/Db" F4 z4 |"F/C" AA AF/FC3/2 z2 |"Gm7" GG<GG"C7" G/F/ z A>G |"F" F8 | %68
w: right _|_|Day Star shine down on me|let your love shine through me in the|night|
"F9" z4"Eb/F" z2"F13" z2 |"Bb" dd<dd BB"Eb" z2 |"Bb" dd<dd"C7" BB/c/"C9" z d |"F" c6- c>B- | %72
w: |lead me Lord I'll fol low|an y where you o pen up the|door _ _|
 A4"F9" z2"F#9" z2 |"G9" dd<dd =BB z2 |"G7" dd<dd"G13" d/d/ z"G9" e>d |"C" c8- | %76
w: _|let me know your wis dom|show me things I've nev er seen be|fore|
"Gm7" B2-"Gm9" B2"C" z2"C9" z A/B/ |"F" cc<cA c/A/-G/-F/ z2 |"F9" z2 A/c/c/A/ d2 z/ c/A/G/ | %79
w: _ _ Lord I|want to be Your wit ness _ _|You can take what's wrong and make it|
"Bb" F4-"Bb6" F4- |"Bbm/Db" F4 z4 |"F/C" AA AF/FC3/2 z2 |"Gm7" GG<GG"C7" G/F/ z A>G |"F" F8- | %84
w: right _|_|Day star shine down on me|let your love shine through me in the|night|
"Bbm/Db" B6"Bbm" z"Gm7b5" z |"F/C" AA AF/FC3/2 z2 |"Gm7" GG<GG"C7" G/F/ z A>G |"F" F8- | %88
w: _|Day star shine down on me|let your love shine through me in the|night|
"Bbm/Db" B6"Bbm" z"Gm7b5" z |"F/C" AA AF/FC3/2 z2 |"Gm7" GG<GG"C7" G/F/ z A>G |"Db" F8- |"F" F8 |] %93
w: _|Day star shine down on me|let your love shine through me in the|night|_|

